X: 39023
T: Swan LK243
R: waltz
M: 3/4
K: Fmajor
|:FG|Af ef Ac|G4AB|A2F3G|ABG2FG|
Af ef Ac|GA ce f2|AB A2 F2-|F4FG|
Af ef Ac|G4AB|A2F3G|ABG2FG|
Af ef Ac|GA ce f2|ABG3A|F4FE|
D2 DF CF|B,2 B,C DF|G4FG|AF GF EF|
D2 DF CF|B,2B,A, B,D|B,A, B,C DF|E4 FE|
D2 DF CF|B,2 B,C DF|G4FG|AF GF EF|
D2 DF CF|B,2B,A, B,D|B,A, B,C DF|G4 (3Ace|
f2 f3 e|c4BA|BcF3A|BA Bc de|
f2 f3 e|c4BA|BcF3E|F4 (3Ace|
f2 f3 e|c4BA|BcF3A|BA Bc eg|
ag f2 fe|c4BA|BcF3G|F4:|

